X: 1
T: Happy Hollow
C: Marcus Martin (1941)
R: reel
Z: 2018 John Chambers <jc:trillian.mit.edu> (chords from Mark Simos' transcription)
S: http://www.mne.psu.edu/lamancusa/tunes/HappyHollow.pdf
P: AEAC# ("Calico") tuning
M: C|
L: 1/8
K: A
|:\
"A"A2EF A2E2 | "A"AFED C[E3A,3] | "E"[B3E3](B c)BAB | "A"cBAF A2A2 |
"A"Bc2c- cBAB | "D"cBAF E[E3C3] | "A"A,B,CD ECE2 |1 "E"FA2[BF] "A"A2 (3EFG :|2 "E"FA2F "A"A4 ||
|:\
"E"B2E2 B3B | "D"cBAF EC3 | "E"B2E2 B3B | "A"cBAF A2A2 |
"A"Bc2(B c)BAB | "D"cBAF EC2B, | "A"A,B,CD EFE2 |1 "E"FA2F "A"A2AA :|2 "E"FA2F "A"A4 |]
P: Variations:
| A2E2 A2E2 | AFED CE3 | y8 | A2E2 AFEA- | AFED CE3 |
